assets/icons/uE032-video.svg

<svg xmlns="http://www.w3.org/2000/svg" width="896" height="1232" viewBox="0 0 896 1232"><path d="M182 420q-29 0-49.5-20.5T112 350t20.5-49.5T182 280t49.5 20.5T252 350t-20.5 49.5T182 420zm336-252q52 0 89 37t37 89-37 89-89 37-89-37-37-89 37-89 89-37zm355 319q23 16 23 45v308q0 29-23 45-16 11-33 11-9 0-18-3l-123-41q-5 42-36.5 71T588 952H112q-46 0-79-33T0 840V560q0-55 45-90Q0 419 0 350q0-75 53.5-128.5T182 168q64 0 114 40 26-68 86.5-110T518 56q98 0 168 70t70 168q0 114-90 186 18 18 27 42l129-43q9-3 18-3 17 0 33 11zM182 224q-52 0-89 37t-37 89 37 89 89 37 89-37 37-89-37-89-89-37zm462 616V560q0-23-16.5-39.5T588 504H112q-23 0-39.5 16.5T56 560v280q0 23 16.5 39.5T112 896h476q23 0 39.5-16.5T644 840zM518 476q75 0 128.5-53T700 294q0-75-53.5-128.5T518 112q-76 0-129 53.5T336 294q0 76 53 129t129 53zm322 364V532l-168 56v196z"/></svg>

<?xml version="1.0" encoding="UTF-8" standalone="no"?><svg   xmlns:svg="http://www.w3.org/2000/svg"   xmlns="http://www.w3.org/2000/svg"   version="1.1"   width="896"   height="1232"   viewBox="0 0 896 1232">  <path     d="M182 420Q153 420 132.5 399.5T112 350T132.5 300.5T182 280T231.5 300.5T252 350T231.5 399.5T182 420zM518 168Q570 168 607 205T644 294T607 383T518 420T429 383T392 294T429 205T518 168zM873 487Q896 503 896 532V840Q896 869 873 885Q857 896 840 896Q831 896 822 893L699 852Q694 894 662.5 923T588 952H112Q66 952 33 919T0 840V560Q0 505 45 470Q0 419 0 350Q0 275 53.5 221.5T182 168Q246 168 296 208Q322 140 382.5 98T518 56Q616 56 686 126T756 294Q756 408 666 480Q684 498 693 522L822 479Q831 476 840 476Q857 476 873 487zM182 224Q130 224 93 261T56 350T93 439T182 476T271 439T308 350T271 261T182 224zM644 840V560Q644 537 627.5 520.5T588 504H112Q89 504 72.5 520.5T56 560V840Q56 863 72.5 879.5T112 896H588Q611 896 627.5 879.5T644 840zM518 476Q593 476 646.5 423T700 294Q700 219 646.5 165.5T518 112Q442 112 389 165.5T336 294Q336 370 389 423T518 476zM840 840V532L672 588V784z"     id="icon414" /></svg>
